packages/ui-icons/svg/Solid/alerts.svg

<svg viewBox="0 0 1920 1920" version="1.1" xmlns="http://www.w3.org/2000/svg">
    <path d="M1298.82353,1581.17647 C1298.82353,1767.98118 1146.80471,1920 960,1920 C773.195294,1920 621.176471,1767.98118 621.176471,1581.17647 L1298.82353,1581.17647 Z M1016.47059,0 L1016.47059,115.764706 C1394.93647,144.790588 1694.11765,461.364706 1694.11765,847.058824 L1694.11765,847.058824 L1694.11765,1129.41176 C1694.11765,1253.98588 1795.42588,1355.29412 1920,1355.29412 L1920,1355.29412 L1920,1468.23529 L0,1468.23529 L0,1355.29412 C124.574118,1355.29412 225.882353,1253.98588 225.882353,1129.41176 L225.882353,1129.41176 L225.882353,847.058824 C225.882353,461.364706 525.063529,144.790588 903.529412,115.764706 L903.529412,115.764706 L903.529412,0 L1016.47059,0 Z" stroke="none" stroke-width="1" fill-rule="evenodd"/>
</svg>

<svg viewBox="0 0 1920 1920" xmlns="http://www.w3.org/2000/svg">
    <path d="M1298.824 1581.176c0 186.805-152.02 338.824-338.824 338.824-186.805 0-338.824-152.019-338.824-338.824h677.648ZM1016.47 0v115.765c378.465 29.026 677.647 345.6 677.647 731.294v282.353c0 124.574 101.308 225.882 225.882 225.882v112.941H0v-112.94c124.574 0 225.882-101.31 225.882-225.883V847.059c0-385.694 299.182-702.268 677.647-731.294V0h112.942Z" fill-rule="evenodd"/>
</svg>
